X:SSF 14-18 044
T:Morgan Rattler
M:6/8
K:D
P:A
AGF EFG FEF D3 |1,3 AGF EFG B2A Bcd :|2 def edc B2A Bcd :|4 dcB edc B2A Bcd 
P:B
d2e fed |1,3 c2d ecA d2e fed f2e fga :|2,4 c2d efg agf edc B2A Bcd :|
P:C
D2D dcd |1,3 E2E efe D2D dcd B2A Bcd :|2,4 E2E efg agf edc B2A Bcd :|

%      SSF 14-18 045 = EATMD 13-01 14 The Wheatsheaf Tavern

%      SSF 14-18 046 = WFS 13-07 12 Paddy Carey's,
% into SSF 14-18 047 = WFS 13-07 13 Spirit of the Dance

%      SSF 14-18 048 = EATMD 13-01 16 Young Scotty

%      SSF 14-18 049 = BFS 14-04 69 The Trip To Brighton

